X:1
T:Title
%%score ( 1 2 ) ( 3 4 )
L:1/8
Q:1/4=100
M:4/4
K:D
V:1 treble nm="Midi_20"
V:2 treble 
V:3 bass nm="Midi_20"
V:4 bass 
V:1
"^Mount Zion (7 7. 7 7.7 7.)""^Sir Arthur Sullivan\n(1842-1900)" F2 G2 A2 B2 | d2 c2 d4 | %2
 A2 F2 B2 B2 | B2 E2 E4 || E2 F2 G2 G2 | G3 A (G2 F2) | d2 c2 B2 A2 | A2 ^G2 A4 || A2 F2 E2 F2 | %9
 G2 G2 G4 | F2 G2 A2 B2 | D2 E2 D4 |] %12
V:2
 D2 D2 D2 D2 | D2 G2 F4 | E2 D2 F2 ^D2 | E2 D2 C4 || C2 D2 E2 E2 | E3 F (E2 D2) | D2 E2 F2 F2 | %7
 E2 E2 E4 || F2 ^D2 C2 D2 | E2 E2 E4 | D2 D2 D2 D2 | A,2 C2 D4 |] %12
V:3
 A,2 G,2 F,2 E,2 | F,2 A,2 A,4 | A,2 A,2 B,2 A,2 | G,2 ^G,2 A,4 || A,2 A,2 C2 B,2 | A,2 A,2 A,4 | %6
 B,2 ^A,2 B,2 D2 | C2 D2 C4 || =C2 B,2 B,2 B,2 | B,2 B,2 A,4 | A,2 G,2 F,2 E,2 | F,2 G,2 F,4 |] %12
V:4
 D,2 B,,2 A,,2 G,,2 | A,,2 A,,2 D,4 | C,2 D,2 ^D,2 B,,2 | E,2 E,2 A,,4 || G,2 F,2 E,2 D,2 | %5
 C,2 C,2 D,4 | B,,2 C,2 D,2 B,,2 | E,2 E,2 A,,4 || A,,2 A,2 G,2 F,2 | E,2 D,2 C,4 | %10
 D,2 B,,2 A,,2 G,,2 | A,,2 A,,2 D,4 |] %12

